X:1
T:D Major Samuel Holyoke, 1803
T:Isaac Watts, 1719 (Hymn 28, Book 2)       66. 86. (S. M.)
T:Newington Transcribed from The Columbian Repository, 1803.
%%score [ 1 2 3 4 ]
L:1/8
Q:1/4=120
M:2/2
K:D
V:1 treble nm="Tr." snm="Tr."
V:2 treble nm="C." snm="C."
V:3 treble-8 nm="T." snm="T."
V:4 bass nm="B." snm="B."
V:1
"^2.   Ye     saints, employ your breath     Ye      saints, employ your breath  In   honor to the   Son,       In     honor   to      the          Son,""^1.   Let    God    the     Father    live,       Let      God    the   Father     live     Forever on our tongues,     For–ev–er   on      our  tongues;" d8 | %1
 AB AG F2 E2 | F8 | d8 | AB AG F2 E2 | F6 A2 | B2 A2 B2 c2 | d6 e2 | d2 g2 f2 ed | c6 z2 | z8 | %11
 z4 z2"^Sin – ners  from  his first   love   de – rive,   first  love de–rive     The   ground   of           all          their""^Who bought your souls from hell and death, from hell and death,    By    of     –     fering    up          his" A2 | %12
 d2 c2 d2 e2 | f2 e2 d2 c2 | d2 c2 d2 A2 | BA GF GA Bc | %16
"^songs.      Sin – ners   from   his   first      love   de – rive   The    ground         of                   all    their   songs.""^own.        Who  bought your souls from  hell    and  death  By    of        –        fering            up     his      own." d6 e2 | %17
 fe dc d2 d2 | ed gf e2 e2 | f4 (e2 d2) | d4 c4 | d8 |] %22
V:2
 z8 | z8 | z8 | %3
"^Ye      saints, employ your   breath   In  honor  to  the  Son,        In   honor    to      the          Son,""^Let     God     the     Father    live    For–ev–er on our tongues,  For – ev–er  on    our     tongues;" F8 | %4
 FE FE D2 C2 | D6 C2 | D2 E2 D2 E2 | F6 G2 | F2 E2 D2 CB, | A,6 z2 | %10
 z4 z2"^Who bought your souls from hell and death, Who bought your souls from hell and death,  By    of     –     fering    up          his""^Sin – ners from his first  love  de – rive,  Sin – ners   from  his  first  love  de – rive   The   ground   of           all          their" A,2 | %11
 D2 C2 D2 E2 | F2 E2 D2 C2 | D2 AG F2 E2 | D2 G2 F2 E2 | DC B,A, B,C DE | F6 G2 | A2 A2 A2 AF | %18
 D2 A2 A2 A2 | A6 G2 | F4 E4 | F8 |] %22
V:3
"^2.   Ye     saints, employ your breath   Ye      saints, employ your breath                                                    In     honor    to      the          Son,     Who""^1.   Let    God    the     Father    live,     Let     God     the     Father    live                                                        For– ev–er   on      our    tongues;   Sin–" F8 | %1
 FG FE D2 C2 | D8 | F8 | d2 d2 A2 G2 | F6 z2 | z8 | z4 z2 c2 | d2 A2 AB A^G | A6 A2 | %10
"^–ners from his first love derive, Sin  – ners  from  his   first   love   de – rive,   first  love de–rive""^bought your souls from hell and death, Who bought your souls from hell and death, from hell and death," d2 c2 d2 e2 | %11
 f2 e2 d2 c2 | d2 AG F2 G2 | A2 A2 A2 G2 | A2 A2 A2 z2 | z8 | %16
 z4 z2"^Sin – ners   from   his   first      love   de – rive   The    ground         of                   all    their   songs.""^Who  bought your souls from  hell    and  death  By    of        –        fering            up     his      own." c2 | %17
 de fg f2 dA | BA cd c2 c2 | d4 (c2 B2) | A4 A4 | A8 |] %22
V:4
 z8 | z8 | z8 | %3
"^Let     God     the     Father    live                                                        For– ev–er   on      our    tongues;""^Ye      saints, employ your breath                                                     In     honor    to      the          Son," D,8 | %4
 F,G, F,G, A,2 A,,2 | D,6 z2 | z8 | z4 z2 A,,2 | D,2 C,2 D,2 E,2 | A,6 z2 | z8 | z8 | z4 z2 A,,2 | %13
"^Sin – ners   from  his  first  love  derive \nWho bought your souls from hell and death," D,2 C,2 D,2 E,2 | %14
 F,2 E,2 D,2 z2 | z8 | z4 z2 A,2 | DC B,A, D2 F,2 | G,F, E,D, A,2 G,2 | %19
"^_________________________________________________________\nEdited by  B. C. Johnston, 2016.  \n   1. Whole piece moved down from E major to D major.   2. Treble and tenor parts exchanged. \n   3. First three measures, shown as two trebles in original, divided between treble and tenor." (F,E,F,G, A,2) B,G, | %20
 A,4 A,,4 | D,8 |] %22

